Suru++-Ubuntu/apps/scalable/com.jetbrains.PyCharm-Community.svg

<svg width="256" height="256" version="1.1" viewBox="0 0 67.73 67.73" xmlns="http://www.w3.org/2000/svg" xmlns:xlink="http://www.w3.org/1999/xlink">
 <defs>
  <linearGradient id="linearGradient1108" x1="296" x2="296" y1="-212" y2="236" gradientUnits="userSpaceOnUse">
   <stop style="stop-color:#ffffff" offset="0"/>
   <stop style="stop-color:#ffffff;stop-opacity:.09803922" offset=".125"/>
   <stop style="stop-color:#000000;stop-opacity:.09803922" offset=".925"/>
   <stop style="stop-color:#000000;stop-opacity:.49803922" offset="1"/>
  </linearGradient>
  <clipPath id="clipPath1082-3-2">
   <path d="M 361.9375,-212 C 507.2348,-212 528,-191.28677 528,-46.125 V 70.125 C 528,215.28618 507.2348,236 361.9375,236 H 214.0625 C 68.7652,236 48,215.28618 48,70.125 V -46.125 C 48,-191.28677 68.7652,-212 214.0625,-212 Z" style="fill:#8c59d9"/>
  </clipPath>
  <filter id="filter4569" x="-.01" y="-.01" width="1.023" height="1.025" style="color-interpolation-filters:sRGB">
   <feGaussianBlur stdDeviation="1.16"/>
  </filter>
  <filter id="filter913" x="-.02" y="-.03" width="1.046" height="1.05" style="color-interpolation-filters:sRGB">
   <feGaussianBlur stdDeviation="2.32"/>
  </filter>
  <linearGradient id="linearGradient-1" x1="46.847" x2="124.921" y1="48.201" y2="48.201" gradientTransform="matrix(2.8971813,0,0,3.0430825,-76.503371,-80.110037)" gradientUnits="userSpaceOnUse">
   <stop stop-color="#21D789" offset="0"/>
   <stop stop-color="#07C3F2" offset="1"/>
  </linearGradient>
  <linearGradient id="linearGradient-2" x1="-49.682" x2="123.911" y1="97.611" y2="-7.012" gradientTransform="matrix(1.9317506,0,0,2.3661633,-9.5545174,-22.011474)" gradientUnits="userSpaceOnUse">
   <stop stop-color="#FCF84A" offset=".01"/>
   <stop stop-color="#A7EB62" offset=".11"/>
   <stop stop-color="#5FE077" offset=".21"/>
   <stop stop-color="#32DA84" offset=".27"/>
   <stop stop-color="#21D789" offset=".31"/>
   <stop stop-color="#21D789" offset=".58"/>
   <stop stop-color="#21D789" offset=".6"/>
   <stop stop-color="#20D68C" offset=".69"/>
   <stop stop-color="#1ED497" offset=".76"/>
   <stop stop-color="#19D1A9" offset=".83"/>
   <stop stop-color="#13CCC2" offset=".9"/>
   <stop stop-color="#0BC6E1" offset=".97"/>
   <stop stop-color="#07C3F2" offset="1"/>
  </linearGradient>
  <linearGradient id="linearGradient-3" x1="21.426" x2="54.263" y1="113.113" y2="47.713" gradientTransform="matrix(1.8124883,0,0,2.855647,-17.493553,-18.927136)" gradientUnits="userSpaceOnUse">
   <stop stop-color="#21D789" offset="0"/>
   <stop stop-color="#24D788" offset=".16"/>
   <stop stop-color="#2FD886" offset=".3"/>
   <stop stop-color="#41DA82" offset=".44"/>
   <stop stop-color="#5ADC7D" offset=".56"/>
   <stop stop-color="#7AE077" offset=".69"/>
   <stop stop-color="#A1E36E" offset=".81"/>
   <stop stop-color="#CFE865" offset=".93"/>
   <stop stop-color="#F1EB5E" offset="1"/>
  </linearGradient>
  <linearGradient id="linearGradient-4" x1="45.911" x2="96.457" y1="79.529" y2="-6.679" gradientTransform="matrix(2.5624024,0,0,2.0199118,-17.493553,-18.927136)" gradientUnits="userSpaceOnUse">
   <stop stop-color="#21D789" offset="0"/>
   <stop stop-color="#24D788" offset=".06"/>
   <stop stop-color="#2FD886" offset=".11"/>
   <stop stop-color="#41DA82" offset=".16"/>
   <stop stop-color="#5ADD7D" offset=".21"/>
   <stop stop-color="#79E077" offset=".25"/>
   <stop stop-color="#7CE076" offset=".26"/>
   <stop stop-color="#8CE173" offset=".5"/>
   <stop stop-color="#B2E56B" offset=".92"/>
  </linearGradient>
  <linearGradient id="linearGradient-5" x1="142.383" x2="24.686" y1="78.321" y2="77.278" gradientTransform="matrix(2.2001279,0,0,2.3161786,-10.877396,-4.417193)" gradientUnits="userSpaceOnUse">
   <stop stop-color="#FCF84A" offset=".39"/>
   <stop stop-color="#ECF451" offset=".54"/>
   <stop stop-color="#C2E964" offset=".83"/>
   <stop stop-color="#B2E56B" offset=".92"/>
  </linearGradient>
 </defs>
 <g transform="translate(0,-229.26666)">
  <path transform="matrix(.26458333 0 0 .26458333 -1.8735229e-8 232.67026)" d="m162.53675 5.5680001c72.64865 0 83.03125 10.356615 83.03125 82.937505v58.125005c0 72.58059-10.3826 82.9375-83.03125 82.9375h-73.937496c-72.648654 0-83.031254-10.35691-83.031254-82.9375v-58.125005c0-72.58089 10.3826-82.937505 83.031254-82.937505z" style="filter:url(#filter913);opacity:.2"/>
  <path transform="matrix(.26458333 0 0 .26458333 -1.8735229e-8 232.67026)" d="m162.53675 3.5680001c72.64865 0 83.03125 10.356615 83.03125 82.937505v58.125005c0 72.58059-10.3826 82.9375-83.03125 82.9375h-73.937496c-72.648654 0-83.031254-10.35691-83.031254-82.9375v-58.125005c0-72.58089 10.3826-82.937505 83.031254-82.937505z" style="filter:url(#filter4569);opacity:.1"/>
  <path d="m1.473198 270.40792v0.52916c0 9.60218 0.68599 15.087 3.776514 18.17357 3.0905286 3.08658 8.580982 3.77031 18.19217 3.77031h19.562631c9.61119 0 15.101644-0.68373 18.19217-3.77031 3.090527-3.08657 3.776515-8.57139 3.776515-18.17357v-0.52916c0 9.60217-0.685988 15.08699-3.776515 18.17356-3.090526 3.08658-8.58098 3.77032-18.19217 3.77032h-19.562631c-9.611188 0-15.101641-0.68374-18.19217-3.77032-3.090524-3.08657-3.776514-8.57139-3.776514-18.17356z" style="fill:#131313;opacity:.2"/>
  <path d="m1.473198 261.13096v9.80612c0 9.60218 0.68599 15.087 3.776514 18.17357 3.0905286 3.08658 8.580982 3.77031 18.19217 3.77031h19.562631c9.61119 0 15.101644-0.68373 18.19217-3.77031 3.090527-3.08657 3.776515-8.57139 3.776515-18.17357v-9.80612z" style="fill:#ffffff;opacity:.05"/>
  <g transform="matrix(.4851757 0 0 .4851757 1.2696017 231.68504)">
   <path transform="matrix(.54533509 0 0 .54533509 -2.6167875 -4.9845448)" d="m166.00195 16.515625c-1.24934-0.00679-2.17661-0.083984-3.46484-0.083984h-73.937501c-9.081437 0-17.189525 0.161386-24.425781 0.585937-3.618128 0.212276-7.017949 0.491173-10.21289 0.847656-3.194942 0.356484-6.185262 0.790335-8.982422 1.316407-2.797161 0.526071-5.401388 1.144195-7.826172 1.865234-2.424785 0.721039-4.670232 1.544941-6.748047 2.486328s-3.98789 2.000386-5.744141 3.1875c-1.756251 1.187115-3.358267 2.502716-4.818359 3.960938-1.460091 1.458217-2.778021 3.058336-3.966797 4.8125-1.188776 1.754163-2.248572 3.662789-3.191406 5.738281-0.942835 2.075492-1.769923 4.318033-2.492188 6.740234-0.7222645 2.422202-1.34012 5.024066-1.8671872 7.81836-0.5270673 2.794293-0.9630705 5.780889-1.3203126 8.972656-0.357242 3.191767-0.6348671 6.588503-0.8476562 10.203125-0.4255783 7.229243-0.5878906 15.329389-0.5878906 24.402344v58.124999c0 9.07293 0.162312 17.17311 0.5878906 24.40234 0.2127893 3.61462 0.490414 7.01136 0.8476562 10.20313 0.1182793 1.05676 0.3015347 1.95844 0.4375 2.9707l38.164063-4.14258 39.33789-16.67578 1.283203-28.2207 15.392578-81.669922 67.55859-45.751953-3.17578-2.09375z" style="fill:url(#linearGradient-2)"/>
   <path transform="matrix(.54533509 0 0 .54533509 -2.6167875 -4.9845448)" d="m6.0820312 178.80469c0.0456665 0.94412 0.0202978 2.17585 0.0742188 3.09179 0.2127893 3.61462 0.490414 7.01136 0.8476562 10.20313 0.3572423 3.19177 0.7932451 6.17836 1.3203126 8.97266 0.5270674 2.79429 1.1449227 5.39615 1.8671872 7.81835 0.722265 2.42221 1.549353 4.66474 2.492188 6.74024 0.942834 2.0755 2.00263 3.98411 3.191406 5.73828s2.506707 3.35428 3.966797 4.8125c1.460092 1.45823 3.062108 2.77578 4.818359 3.96289 1.756251 1.18712 3.666326 2.24416 5.744141 3.18555 2.077815 0.94138 4.323262 1.76529 6.748047 2.48633 2.424785 0.72103 5.029011 1.33916 7.826172 1.86523 2.79716 0.52607 5.78748 0.96188 8.982422 1.31836 3.194941 0.35648 6.594762 0.63343 10.21289 0.8457 7.236256 0.42455 15.344344 0.58594 24.425781 0.58594h20.376951l-8.16797-167.44726-36.400387 18.65625-58.326172 87.164065z" style="fill:url(#linearGradient-3)"/>
   <path transform="matrix(.54533509 0 0 .54533509 -2.6167875 -4.9845448)" d="m204.7207 18.970703c-2.40154-0.417649-4.86129-0.806036-7.54492-1.105469-3.19494-0.356483-6.59476-0.63538-10.21289-0.847656-7.23626-0.424551-15.34434-0.585937-24.42578-0.585937h-3.04883l-49.58008 44.267578h101.01172l-6.19922-41.728516z" style="fill:url(#linearGradient-4)"/>
   <path transform="matrix(.54533509 0 0 .54533509 -2.6167875 -4.9845448)" d="m74.916016 240.10352c4.49441 0.11922 8.596072 0.32812 13.683593 0.32812h73.937501c9.08144 0 17.18952-0.16139 24.42578-0.58594 3.61813-0.21227 7.01795-0.48922 10.21289-0.8457s6.18526-0.79229 8.98242-1.31836 5.40139-1.1442 7.82618-1.86523c2.42478-0.72104 4.67023-1.54495 6.74804-2.48633 2.07782-0.94139 3.98789-1.99843 5.74414-3.18555 1.75625-1.18711 3.35827-2.50466 4.81836-3.96289 1.46009-1.45822 2.77802-3.05833 3.9668-4.8125s2.24857-3.66278 3.1914-5.73828c0.94284-2.0755 1.76797-4.31803 2.49024-6.74024 0.72226-2.4222 1.34207-5.02406 1.86914-7.81835 0.52707-2.7943 0.96112-5.78089 1.31836-8.97266s0.63682-6.58851 0.84961-10.20313c0.42558-7.22923 0.58789-15.32941 0.58789-24.40234v-26.36328l-3.7e-4 -10.69886-65.12809 13.0048 11.39799-65.616488-71.78516 6.771485-13.54492 12.189453z" style="fill:url(#linearGradient-5)"/>
   <path transform="matrix(.54533509 0 0 .54533509 -2.6167875 -4.9845448)" d="m245.56836 149.05469v-49.685549c0-9.072955-0.16231-17.173101-0.58789-24.402344-0.21279-3.614622-0.49237-7.011358-0.84961-10.203125s-0.79129-6.178363-1.31836-8.972656c-0.52707-2.794294-1.14688-5.396158-1.86914-7.81836-0.72227-2.422201-1.5474-4.664742-2.49024-6.740234-0.94283-2.075492-2.00262-3.984118-3.1914-5.738281-1.18878-1.754164-2.50671-3.354283-3.9668-4.8125-1.46009-1.458222-3.06211-2.773823-4.81836-3.960938-1.75625-1.187114-3.66632-2.246113-5.74414-3.1875-2.07781-0.941387-4.32326-1.765289-6.74804-2.486328-2.42479-0.721039-5.02902-1.339163-7.82618-1.865234-2.79716-0.526072-5.78748-0.959923-8.98242-1.316407-3.19494-0.356483-6.59476-0.63538-10.21289-0.847656-2.87344-0.168585-6.54449-0.140431-9.69922-0.232422l-41.16992 118.07812h58.19727l51.27734 14.19141z" style="fill:url(#linearGradient-1)"/>
  </g>
  <g transform="matrix(.4851757 0 0 .4851757 12.913819 243.32926)">
   <rect width="80" height="80"/>
   <rect x="7.6" y="65" width="30" height="5" style="fill:#ffffff"/>
   <path d="m7.4 10.4h13.6c8 0 12.6 4.6 12.6 11.4 0 7.6-6 11.6-13.4 11.6h-5.6v10h-7.2zm18.8 11.8c0-3.2-2.2-5-6-5h-5.6v10.2h5.8c3.93 0 5.8-2.4 5.8-5.2z" style="fill:#ffffff"/>
   <path d="m36.4 27.2c-0.102119-4.592268 1.677206-9.02674 4.925233-12.274767s7.682499-5.0273522 12.274767-4.925233c6.2 0 10 2 13 5.2l-4.6 5.4c-2.6-2.4-5.2-3.8-8.4-3.8-5.6 0-9.6 4.6-9.6 10.4 0 5.6 4 10.4 9.6 10.4 3.8 0 6.2-1.6 8.8-3.8l4.6 4.6c-3.4 3.6-7.2 6-13.6 6-4.543547 3.14e-4 -8.898152-1.81818-12.092082-5.049686-3.193931-3.231506-4.961371-7.607081-4.907918-12.150314" style="fill:#ffffff"/>
  </g>
  <path transform="matrix(.13229167 0 0 .13229167 -4.876802 261.66013)" d="M 361.9375,-212 C 507.2348,-212 528,-191.28677 528,-46.125 V 70.125 C 528,215.28618 507.2348,236 361.9375,236 H 214.0625 C 68.7652,236 48,215.28618 48,70.125 V -46.125 C 48,-191.28677 68.7652,-212 214.0625,-212 Z" clip-path="url(#clipPath1082-3-2)" style="fill:none;opacity:.4;stroke-linecap:round;stroke-linejoin:round;stroke-width:8;stroke:url(#linearGradient1108)"/>
 </g>
</svg>

<svg xmlns="http://www.w3.org/2000/svg" xmlns:xlink="http://www.w3.org/1999/xlink" width="256" height="256" version="1.1" viewBox="0 0 67.73 67.73">
 <defs>
  <linearGradient id="linearGradient1108" x1="296" x2="296" y1="-212" y2="236" gradientUnits="userSpaceOnUse" xlink:href="#linearGradient1013"/>
  <linearGradient id="linearGradient1013">
   <stop offset="0" style="stop-color:#ffffff"/>
   <stop style="stop-color:#ffffff;stop-opacity:0.09803922" offset=".125"/>
   <stop style="stop-color:#000000;stop-opacity:0.09803922" offset=".925"/>
   <stop offset="1" style="stop-color:#000000;stop-opacity:0.49803922"/>
  </linearGradient>
  <clipPath id="clipPath1082-3-2" clipPathUnits="userSpaceOnUse">
   <path d="M 361.9375,-212 C 507.2348,-212 528,-191.28677 528,-46.125 V 70.125 C 528,215.28618 507.2348,236 361.9375,236 H 214.0625 C 68.7652,236 48,215.28618 48,70.125 V -46.125 C 48,-191.28677 68.7652,-212 214.0625,-212 Z" style="fill:#8c59d9"/>
  </clipPath>
  <filter style="color-interpolation-filters:sRGB" id="filter4569" width="1.023" height="1.025" x="-.01" y="-.01">
   <feGaussianBlur stdDeviation="1.16"/>
  </filter>
  <filter style="color-interpolation-filters:sRGB" id="filter913" width="1.046" height="1.05" x="-.02" y="-.03">
   <feGaussianBlur stdDeviation="2.32"/>
  </filter>
  <linearGradient id="linearGradient-1" x1="46.847" x2="124.921" y1="48.201" y2="48.201" gradientTransform="matrix(2.8971813,0,0,3.0430825,-76.503371,-80.110037)" gradientUnits="userSpaceOnUse">
   <stop offset="0%" stop-color="#21D789"/>
   <stop offset="100%" stop-color="#07C3F2"/>
  </linearGradient>
  <linearGradient id="linearGradient-2" x1="-49.682" x2="123.911" y1="97.611" y2="-7.012" gradientTransform="matrix(1.9317506,0,0,2.3661633,-9.5545174,-22.011474)" gradientUnits="userSpaceOnUse">
   <stop offset="1%" stop-color="#FCF84A"/>
   <stop offset="11%" stop-color="#A7EB62"/>
   <stop offset="21%" stop-color="#5FE077"/>
   <stop offset="27%" stop-color="#32DA84"/>
   <stop offset="31%" stop-color="#21D789"/>
   <stop offset="58%" stop-color="#21D789"/>
   <stop offset="60%" stop-color="#21D789"/>
   <stop offset="69%" stop-color="#20D68C"/>
   <stop offset="76%" stop-color="#1ED497"/>
   <stop offset="83%" stop-color="#19D1A9"/>
   <stop offset="90%" stop-color="#13CCC2"/>
   <stop offset="97%" stop-color="#0BC6E1"/>
   <stop offset="100%" stop-color="#07C3F2"/>
  </linearGradient>
  <linearGradient id="linearGradient-3" x1="21.426" x2="54.263" y1="113.113" y2="47.713" gradientTransform="matrix(1.8124883,0,0,2.855647,-17.493553,-18.927136)" gradientUnits="userSpaceOnUse">
   <stop offset="0%" stop-color="#21D789"/>
   <stop offset="16%" stop-color="#24D788"/>
   <stop offset="30%" stop-color="#2FD886"/>
   <stop offset="44%" stop-color="#41DA82"/>
   <stop offset="56%" stop-color="#5ADC7D"/>
   <stop offset="69%" stop-color="#7AE077"/>
   <stop offset="81%" stop-color="#A1E36E"/>
   <stop offset="93%" stop-color="#CFE865"/>
   <stop offset="100%" stop-color="#F1EB5E"/>
  </linearGradient>
  <linearGradient id="linearGradient-4" x1="45.911" x2="96.457" y1="79.529" y2="-6.679" gradientTransform="matrix(2.5624024,0,0,2.0199118,-17.493553,-18.927136)" gradientUnits="userSpaceOnUse">
   <stop offset="0%" stop-color="#21D789"/>
   <stop offset="6%" stop-color="#24D788"/>
   <stop offset="11%" stop-color="#2FD886"/>
   <stop offset="16%" stop-color="#41DA82"/>
   <stop offset="21%" stop-color="#5ADD7D"/>
   <stop offset="25%" stop-color="#79E077"/>
   <stop offset="26%" stop-color="#7CE076"/>
   <stop offset="50%" stop-color="#8CE173"/>
   <stop offset="92%" stop-color="#B2E56B"/>
  </linearGradient>
  <linearGradient id="linearGradient-5" x1="142.383" x2="24.686" y1="78.321" y2="77.278" gradientTransform="matrix(2.2001279,0,0,2.3161786,-10.877396,-4.417193)" gradientUnits="userSpaceOnUse">
   <stop offset="39%" stop-color="#FCF84A"/>
   <stop offset="54%" stop-color="#ECF451"/>
   <stop offset="83%" stop-color="#C2E964"/>
   <stop offset="92%" stop-color="#B2E56B"/>
  </linearGradient>
 </defs>
 <g transform="translate(0,-229.26666)">
  <path style="opacity:0.2;filter:url(#filter913)" d="m 162.53675,5.5680001 c 72.64865,0 83.03125,10.3566149 83.03125,82.9375049 v 58.125005 c 0,72.58059 -10.3826,82.9375 -83.03125,82.9375 H 88.599254 C 15.9506,229.56801 5.568,219.2111 5.568,146.63051 V 88.505505 c 0,-72.58089 10.3826,-82.9375049 83.031254,-82.9375049 z" transform="matrix(0.26458333,0,0,0.26458333,-1.8735229e-8,232.67026)"/>
  <path d="m 162.53675,3.5680001 c 72.64865,0 83.03125,10.3566149 83.03125,82.9375049 v 58.125005 c 0,72.58059 -10.3826,82.9375 -83.03125,82.9375 H 88.599254 C 15.9506,227.56801 5.568,217.2111 5.568,144.63051 V 86.505505 c 0,-72.58089 10.3826,-82.9375049 83.031254,-82.9375049 z" transform="matrix(0.26458333,0,0,0.26458333,-1.8735229e-8,232.67026)" style="opacity:0.1;filter:url(#filter4569)"/>
  <path style="opacity:0.2;fill:#131313" d="m 1.473198,270.40792 v 0.52916 c 0,9.60218 0.68599,15.087 3.776514,18.17357 3.0905286,3.08658 8.580982,3.77031 18.19217,3.77031 h 19.562631 c 9.61119,0 15.101644,-0.68373 18.19217,-3.77031 3.090527,-3.08657 3.776515,-8.57139 3.776515,-18.17357 v -0.52916 c 0,9.60217 -0.685988,15.08699 -3.776515,18.17356 -3.090526,3.08658 -8.58098,3.77032 -18.19217,3.77032 H 23.441882 c -9.611188,0 -15.1016414,-0.68374 -18.19217,-3.77032 -3.090524,-3.08657 -3.776514,-8.57139 -3.776514,-18.17356 z"/>
  <path style="opacity:0.05;fill:#ffffff" d="m 1.473198,261.13096 v 9.80612 c 0,9.60218 0.68599,15.087 3.776514,18.17357 3.0905286,3.08658 8.580982,3.77031 18.19217,3.77031 h 19.562631 c 9.61119,0 15.101644,-0.68373 18.19217,-3.77031 3.090527,-3.08657 3.776515,-8.57139 3.776515,-18.17357 v -9.80612 z"/>
  <g transform="matrix(0.4851757,0,0,0.4851757,1.2696017,231.68504)">
   <path style="fill:url(#linearGradient-2)" d="M 166.00195 16.515625 C 164.75261 16.508835 163.82534 16.431641 162.53711 16.431641 L 88.599609 16.431641 C 79.518172 16.431641 71.410084 16.593027 64.173828 17.017578 C 60.5557 17.229854 57.155879 17.508751 53.960938 17.865234 C 50.765996 18.221718 47.775676 18.655569 44.978516 19.181641 C 42.181355 19.707712 39.577128 20.325836 37.152344 21.046875 C 34.727559 21.767914 32.482112 22.591816 30.404297 23.533203 C 28.326482 24.47459 26.416407 25.533589 24.660156 26.720703 C 22.903905 27.907818 21.301889 29.223419 19.841797 30.681641 C 18.381706 32.139858 17.063776 33.739977 15.875 35.494141 C 14.686224 37.248304 13.626428 39.15693 12.683594 41.232422 C 11.740759 43.307914 10.913671 45.550455 10.191406 47.972656 C 9.4691415 50.394858 8.851286 52.996722 8.3242188 55.791016 C 7.7971515 58.585309 7.3611483 61.571905 7.0039062 64.763672 C 6.6466642 67.955439 6.3690391 71.352175 6.15625 74.966797 C 5.7306717 82.19604 5.5683594 90.296186 5.5683594 99.369141 L 5.5683594 157.49414 C 5.5683594 166.56707 5.7306714 174.66725 6.15625 181.89648 C 6.3690393 185.5111 6.646664 188.90784 7.0039062 192.09961 C 7.1221855 193.15637 7.3054409 194.05805 7.4414062 195.07031 L 45.605469 190.92773 L 84.943359 174.25195 L 86.226562 146.03125 L 101.61914 64.361328 L 169.17773 18.609375 L 166.00195 16.515625 z" transform="matrix(0.54533509,0,0,0.54533509,-2.6167875,-4.9845448)"/>
   <path style="fill:url(#linearGradient-3)" d="M 6.0820312 178.80469 C 6.1276977 179.74881 6.102329 180.98054 6.15625 181.89648 C 6.3690393 185.5111 6.646664 188.90784 7.0039062 192.09961 C 7.3611485 195.29138 7.7971513 198.27797 8.3242188 201.07227 C 8.8512862 203.86656 9.4691415 206.46842 10.191406 208.89062 C 10.913671 211.31283 11.740759 213.55536 12.683594 215.63086 C 13.626428 217.70636 14.686224 219.61497 15.875 221.36914 C 17.063776 223.12331 18.381707 224.72342 19.841797 226.18164 C 21.301889 227.63987 22.903905 228.95742 24.660156 230.14453 C 26.416407 231.33165 28.326482 232.38869 30.404297 233.33008 C 32.482112 234.27146 34.727559 235.09537 37.152344 235.81641 C 39.577129 236.53744 42.181355 237.15557 44.978516 237.68164 C 47.775676 238.20771 50.765996 238.64352 53.960938 239 C 57.155879 239.35648 60.5557 239.63343 64.173828 239.8457 C 71.410084 240.27025 79.518172 240.43164 88.599609 240.43164 L 108.97656 240.43164 L 100.80859 72.984375 L 64.408203 91.640625 L 6.0820312 178.80469 z" transform="matrix(0.54533509,0,0,0.54533509,-2.6167875,-4.9845448)"/>
   <path style="fill:url(#linearGradient-4)" d="M 204.7207 18.970703 C 202.31916 18.553054 199.85941 18.164667 197.17578 17.865234 C 193.98084 17.508751 190.58102 17.229854 186.96289 17.017578 C 179.72663 16.593027 171.61855 16.431641 162.53711 16.431641 L 159.48828 16.431641 L 109.9082 60.699219 L 210.91992 60.699219 L 204.7207 18.970703 z" transform="matrix(0.54533509,0,0,0.54533509,-2.6167875,-4.9845448)"/>
   <path style="fill:url(#linearGradient-5)" d="m 74.916016,240.10352 c 4.49441,0.11922 8.596072,0.32812 13.683593,0.32812 h 73.937501 c 9.08144,0 17.18952,-0.16139 24.42578,-0.58594 3.61813,-0.21227 7.01795,-0.48922 10.21289,-0.8457 3.19494,-0.35648 6.18526,-0.79229 8.98242,-1.31836 2.79716,-0.52607 5.40139,-1.1442 7.82618,-1.86523 2.42478,-0.72104 4.67023,-1.54495 6.74804,-2.48633 2.07782,-0.94139 3.98789,-1.99843 5.74414,-3.18555 1.75625,-1.18711 3.35827,-2.50466 4.81836,-3.96289 1.46009,-1.45822 2.77802,-3.05833 3.9668,-4.8125 1.18878,-1.75417 2.24857,-3.66278 3.1914,-5.73828 0.94284,-2.0755 1.76797,-4.31803 2.49024,-6.74024 0.72226,-2.4222 1.34207,-5.02406 1.86914,-7.81835 0.52707,-2.7943 0.96112,-5.78089 1.31836,-8.97266 0.35724,-3.19177 0.63682,-6.58851 0.84961,-10.20313 0.42558,-7.22923 0.58789,-15.32941 0.58789,-24.40234 v -26.36328 l -3.7e-4,-10.69886 -65.12809,13.0048 11.39799,-65.616488 -71.78516,6.771485 -13.54492,12.189453 z" transform="matrix(0.54533509,0,0,0.54533509,-2.6167875,-4.9845448)"/>
   <path style="fill:url(#linearGradient-1)" d="M 245.56836 149.05469 L 245.56836 99.369141 C 245.56836 90.296186 245.40605 82.19604 244.98047 74.966797 C 244.76768 71.352175 244.4881 67.955439 244.13086 64.763672 C 243.77362 61.571905 243.33957 58.585309 242.8125 55.791016 C 242.28543 52.996722 241.66562 50.394858 240.94336 47.972656 C 240.22109 45.550455 239.39596 43.307914 238.45312 41.232422 C 237.51029 39.15693 236.4505 37.248304 235.26172 35.494141 C 234.07294 33.739977 232.75501 32.139858 231.29492 30.681641 C 229.83483 29.223419 228.23281 27.907818 226.47656 26.720703 C 224.72031 25.533589 222.81024 24.47459 220.73242 23.533203 C 218.65461 22.591816 216.40916 21.767914 213.98438 21.046875 C 211.55959 20.325836 208.95536 19.707712 206.1582 19.181641 C 203.36104 18.655569 200.37072 18.221718 197.17578 17.865234 C 193.98084 17.508751 190.58102 17.229854 186.96289 17.017578 C 184.08945 16.848993 180.4184 16.877147 177.26367 16.785156 L 136.09375 134.86328 L 194.29102 134.86328 L 245.56836 149.05469 z" transform="matrix(0.54533509,0,0,0.54533509,-2.6167875,-4.9845448)"/>
  </g>
  <g transform="matrix(0.4851757,0,0,0.4851757,12.913819,243.32926)">
   <rect width="80" height="80" x="0" y="0"/>
   <rect style="fill:#ffffff" width="30" height="5" x="7.6" y="65"/>
   <path style="fill:#ffffff" d="M 7.4,10.4 H 21 c 8,0 12.6,4.6 12.6,11.4 v 0 c 0,7.6 -6,11.6 -13.4,11.6 h -5.6 v 10 H 7.4 Z m 18.8,11.8 v 0 c 0,-3.2 -2.2,-5 -6,-5 h -5.6 v 10.2 h 5.8 c 3.93,0 5.8,-2.4 5.8,-5.2 z"/>
   <path style="fill:#ffffff" d="m 36.4,27.2 v 0 C 36.297881,22.607732 38.077206,18.17326 41.325233,14.925233 44.57326,11.677206 49.007732,9.8978808 53.6,10 c 6.2,0 10,2 13,5.2 L 62,20.6 C 59.4,18.2 56.8,16.8 53.6,16.8 48,16.8 44,21.4 44,27.2 v 0 c 0,5.6 4,10.4 9.6,10.4 3.8,0 6.2,-1.6 8.8,-3.8 l 4.6,4.6 c -3.4,3.6 -7.2,6 -13.6,6 -4.543547,3.14e-4 -8.898152,-1.81818 -12.092082,-5.049686 C 38.113987,36.118808 36.346547,31.743233 36.4,27.2"/>
  </g>
  <path d="M 361.9375,-212 C 507.2348,-212 528,-191.28677 528,-46.125 V 70.125 C 528,215.28618 507.2348,236 361.9375,236 H 214.0625 C 68.7652,236 48,215.28618 48,70.125 V -46.125 C 48,-191.28677 68.7652,-212 214.0625,-212 Z" clip-path="url(#clipPath1082-3-2)" transform="matrix(0.13229167,0,0,0.13229167,-4.876802,261.66013)" style="opacity:0.4;fill:none;stroke:url(#linearGradient1108);stroke-width:8;stroke-linecap:round;stroke-linejoin:round"/>
 </g>
</svg>
